X:1689
T:Jannes steppen
R:Polkett
S:Efter [[Jan Mikaelsson]] upptecknad av [[Sören Johansson]] 
O:Skallvattenberg, Lappland
Z:till abc av Eva Zwahlen 2009-11-11
M:2/4
L:1/16
K:D
d2e2|:f2ff f2g2|f2e2 d2c2|B2G2 B2G2|B4 c2d2|e2ee e2f2|e2d2 c2B2|A3B A2G2|F4 d2e2|f2ff f2g2|f2e2 d2c2|B2G2 B2G2|B4 c2d2|e4 A4|B4 c4|d2dd d2d2|1d4 d2e2 :|2d4 z4|:d4 A2d2|f4 d2f2|b4 a4|f4 d2f2|a4 g4|e4 a4|f3g f2e2|d2c2 B2A2|d4 A2d2|f4 d2f2|b4 a4|f4 d2f2|a4 g4|e4 a4|(3ABc d2 (3ABc d2 |(3ABc d2 z4 :|]  
(:musicend:)
(:music:)
